!!!OTL: 96. Kette (Reigenspiel).
!!!ARE: Europa, Mitteleuropa, Deutschland, Kassel
!!!SCT: K2096
!!!TXL: @@DE
!!!YEM: Copyright 1995, estate of Helmut Schaffrath.
**kern	**text
*clefG2	*
*M2/4	*
*k[b-]	*
*F:	*
{8c	Wir
=1	=1
8f	tre-
8g	-ten
8a	auf
8b-	die
=2	=2
4cc	Ket-
4ff}	-te,
=3	=3
{8a	daß
8a	die
8g	Ket-
8g	-te
=4	=4
4f	klingt;
8r}	.
{8c	Wir
=5	=5
8f	ha-
8g	-ben
8a	ei-
8b-	-nen
=6	=6
4cc	Vo-
4ff}	-gel,
=7	=7
{8a	der
8a	ſo
8g	ſchö-
8g	-ne
=8	=8
4f	ſingt.
4r}	.
=9	=9
{8cc	Hat
8cc	ge-
8b-	-ſun-
8b-	-gen
=10	=10
8a	ſie-
8a	-ben
4g}	Jahr,
=11	=11
{8cc	ſie-
8cc	-ben
8b-	Jahr
8b-	ſind
=12	=12
4a	rum.
4r}	.
=13	=13
{8cc	Frie-
8cc	-da
8cc	hat
8cc	ſich
=14	=14
8dd	um-
8dd	-ge-
4dd}	-dreht,
=15	=15
{8b-	hat
8b-	ſein'
8b-	Schatʒ
8b-	ein'
=16	=16
8cc	Kuß
8cc	ver-
8cc}	-ehrt.
{8dd	Pfui
=17	=17
8.cc	ſchä-
16b-	-me
8a	dich,
8dd	pfui
=18	=18
8.cc	ſchä-
16b-	-me
8a}	dich,
{8a	du
=19	=19
8g	un-
8g	-ge-
8g	-ʒog-
8g	-nes
=20	=20
4f	Kind!
4r}	.
==	==
!!!AGN: Kinder - Lied, Reigen, Tanz - Spiel
!!!ONB: ESAC (Essen Associative Code) Database: KINDER
!!!AMT: simple duple
!!!AIN: vox
!!!EED: Helmut Schaffrath
!!!EEV: 1.0
!!Aus Kassel: Lewalter II Nr. 34.
!!!GTL: Zweites Buch. Kinderspiel: 2. Reigen und Tanzspiele. / B. Ringeltanz mit Umkehr des Kreises.
!!@@COMMENT:"Derſelbe Reim bei G. Eskuche Nr. 194. Aehnlicher Text (ohne den Schlußruf) aus Oberdiebach a. Rh. Das Mädchen heißt dort Amſel-Lina."
!!@@END:
!!!URL-scan: https://archive.org/details/DeutschesKinderliedUndKinderspiel/page/448/mode/1up
!!!ENC: Anna Maria Matuszewska
!!!EEV: 2024/03/09
*-	*-
